src/raw/pin-marker/icon_32.svg

<svg width="32" height="32" viewBox="0 0 32 32" fill="none" xmlns="http://www.w3.org/2000/svg">
<path d="M16.0002 1.33334C18.8291 1.33334 21.5422 2.547 23.5426 4.70733C25.543 6.86767 26.6668 9.79771 26.6668 12.8529C26.6668 17.5392 20.88 25.7377 17.8317 29.7329C17.6093 30.0248 17.3298 30.26 17.0133 30.4215C16.6967 30.5829 16.351 30.6667 16.001 30.6667C15.6509 30.6667 15.3052 30.5829 14.9886 30.4215C14.6721 30.26 14.3926 30.0248 14.1702 29.7329C11.1219 25.7411 5.3335 17.5392 5.3335 12.8529C5.3335 9.79771 6.4573 6.86767 8.45769 4.70733C10.4581 2.547 13.1712 1.33334 16.0002 1.33334Z" stroke="#71717A" stroke-width="1.5" stroke-linecap="round" stroke-linejoin="round"/>
<path d="M16 16C18.2091 16 20 14.2091 20 12C20 9.79086 18.2091 8 16 8C13.7909 8 12 9.79086 12 12C12 14.2091 13.7909 16 16 16Z" stroke="#71717A" stroke-width="1.5" stroke-linecap="round" stroke-linejoin="round"/>
</svg>

<svg xmlns="http://www.w3.org/2000/svg" width="32" height="32" fill="none" viewBox="0 0 32 32">
  <path stroke="#3F3F46" stroke-linecap="round" stroke-linejoin="round" stroke-width="2"
    d="M16 1.333c2.83 0 5.542 1.214 7.543 3.374 2 2.16 3.124 5.09 3.124 8.146 0 4.686-5.787 12.885-8.835 16.88a2.406 2.406 0 0 1-.819.689 2.225 2.225 0 0 1-1.012.245c-.35 0-.696-.084-1.012-.245a2.406 2.406 0 0 1-.819-.689c-3.048-3.992-8.837-12.194-8.837-16.88 0-3.055 1.124-5.985 3.125-8.146 2-2.16 4.713-3.373 7.542-3.373Z" />
  <path stroke="#3F3F46" stroke-linecap="round" stroke-linejoin="round" stroke-width="2"
    d="M16 16a4 4 0 1 0 0-8 4 4 0 0 0 0 8Z" />
</svg>
